icons/svg/folder-add.svg

<svg width="24" height="24" viewBox="0 0 24 24" fill="none" xmlns="http://www.w3.org/2000/svg">
<path fill-rule="evenodd" clip-rule="evenodd" d="M17.5 23.0001C20.5376 23.0001 23 20.5376 23 17.5001C23 14.4625 20.5376 12.0001 17.5 12.0001C14.4624 12.0001 12 14.4625 12 17.5001C12 20.5376 14.4624 23.0001 17.5 23.0001ZM17.5 14.0067C17.7761 14.0067 18 14.2305 18 14.5067V17.0001H20.4934C20.7696 17.0001 20.9934 17.224 20.9934 17.5001C20.9934 17.7763 20.7696 18.0001 20.4934 18.0001H18V20.4935C18 20.7696 17.7761 20.9935 17.5 20.9935C17.2239 20.9935 17 20.7696 17 20.4935V18.0001H14.5066C14.2304 18.0001 14.0066 17.7763 14.0066 17.5001C14.0066 17.224 14.2304 17.0001 14.5066 17.0001H17V14.5067C17 14.2305 17.2239 14.0067 17.5 14.0067Z" fill="currentColor"/>
<path d="M2.75 8.62311V15.2019C2.75 16.882 2.75 17.7221 3.07698 18.3638C3.3646 18.9283 3.82354 19.3873 4.38803 19.6749C5.02976 20.0019 5.86984 20.0019 7.55 20.0019H10.25M2.75 8.62311V7.59811C2.75 6.33799 2.75 5.70793 2.99524 5.22663C3.21095 4.80326 3.55516 4.45906 3.97852 4.24334C4.45982 3.99811 5.08988 3.99811 6.35 3.99811H8.02872C8.6402 3.99811 8.94593 3.99811 9.23365 4.06718C9.48874 4.12842 9.7326 4.22944 9.95628 4.36651C10.2086 4.52111 10.4248 4.7373 10.8571 5.16968L12 6.31254M2.75 8.62311H8.03257C8.64405 8.62311 8.94979 8.62311 9.23751 8.55403C9.4926 8.49279 9.73646 8.39178 9.96014 8.25471C10.2124 8.1001 10.4286 7.88391 10.861 7.45154L12 6.31254M12 6.31254L16.449 6.31161C18.1295 6.31126 18.9697 6.31108 19.6116 6.63801C20.1762 6.92559 20.6352 7.38455 20.9229 7.94909C21.1886 8.47045 21.2385 9.12274 21.2478 10.25" stroke="currentColor" stroke-width="1.5" stroke-linecap="round" stroke-linejoin="round"/>
</svg>

<svg xmlns="http://www.w3.org/2000/svg" width="24" height="24" fill="none" viewBox="0 0 24 24"><path fill="currentColor" fill-rule="evenodd" d="M17.5 23a5.5 5.5 0 1 0 0-11 5.5 5.5 0 0 0 0 11m0-8.993a.5.5 0 0 1 .5.5V17h2.493a.5.5 0 1 1 0 1H18v2.494a.5.5 0 0 1-1 0V18h-2.493a.5.5 0 1 1 0-1H17v-2.493a.5.5 0 0 1 .5-.5" clip-rule="evenodd"/><path stroke="currentColor" stroke-linecap="round" stroke-linejoin="round" stroke-width="1.5" d="M2.75 8.623v6.579c0 1.68 0 2.52.327 3.162a3 3 0 0 0 1.311 1.31c.642.328 1.482.328 3.162.328h2.7M2.75 8.623V7.598c0-1.26 0-1.89.245-2.371a2.25 2.25 0 0 1 .984-.984c.48-.245 1.11-.245 2.371-.245h1.679c.611 0 .917 0 1.205.07a2.5 2.5 0 0 1 .722.299c.253.154.469.37.901.803L12 6.313m-9.25 2.31h5.283c.611 0 .917 0 1.205-.069a2.5 2.5 0 0 0 .722-.3c.252-.154.469-.37.901-.802L12 6.312m0 0h4.449c1.68 0 2.52 0 3.163.326a3 3 0 0 1 1.31 1.311c.267.521.316 1.174.326 2.301"/></svg>
